X: 23
T: No_121_Song_to_a_Little_Girl.krn
N: Derived from No_121_Song_to_a_Little_Girl.krn
%%abc-version 2.0
%%abcx-abcm2ps-target-version 5.9.1 (29 Sep 2008)
%%abc-creator hum2abc beta
%%abcx-conversion-date 2019/03/15 08:36:13
%%humdrum-veritas 146831179
%%humdrum-veritas-data 1369556181
%%linebreak <none>
%%barnumbers 0
L: 1/8
M: 2/4
K: B clef=bass
[K:clef=bass][M:2/4]z2CC | 
ED =DD | 
=DDC2 | 
DD DD | 
CC CB, ||  
[M:3/4]CC B,B, B, z | 
DD CC C/C/B, ||  
[M:2/4]CC B,C | 
CD CC/ z/ ]|:  
FE DE | 
DD C z | 
DE DD | 
CC B,G,/ z/ ||  
[M:3/4]CC G,G, G, z | 
DD B,B, B,/A,/G, ||  
[M:2/4]B,B, G,B, | 
B, z B,B, [I:setbarnb 18]:|]  
B,2z2 |]  



